X:1
T:Title
%%score { ( 1 3 ) | 2 }
L:1/8
M:4/4
K:Ab
V:1 treble nm="Grand Piano"
V:3 treble 
V:2 bass 
V:1
 z4 z2[Q:1/4=100] [CE][_C=D] | [CF]2 [CE]2- [CE][CA][DG][CA] | B2 F4 GF | %3
 EFGA [GB][_G=A][=GB][G_c] | c4 z AAB | c2 A2- Aedc | [FB]2 F2- FAGF | E2 B2- B=AB[F_c] | %8
[M:3/4] [=Ec]2 [_Ed]4 |[M:1/4] [CE][_C=D] |[M:4/4] F2 E4 z2 |[M:3/4] B2 F4 |[M:1/4] GF | %13
[M:4/4] EFGA B=AB_c | c-[A,Ec-][CAc-][CFc-] [CEc]2 cd | e2 A4 z2 | f-[Ff]B-[FB-] [FB-][FB]AF | %17
 EFGA B=AcB[Q:1/4=97][Q:1/4=94][Q:1/4=91][Q:1/4=88][Q:1/4=84][Q:1/4=81][Q:1/4=78] |[M:3/4] A6 |] %19
V:2
 z4 z2 [A,,A,][A,,A,] | [A,,A,]2 [A,,A,]2- [A,,A,][A,,E,][B,,E,][A,,E,] | %2
 [D,F,D]2 [D,A,D]4 [D,F,D][D,A,D] | [E,G,][E,A,D][E,B,E][E,CE] [E,D][E,C][E,E][E,E] | %4
 [A,EA]4 z [A,C][A,C][A,DA] | [A,EA]2 [A,CE]2- [A,CE][A,CA][A,FA][A,EA] | %6
 [D,D]2 [D,A,D]2- [D,A,D][D,F,D][D,G,D][D,A,D] | %7
 [E,A,C]2 [E,G,D]2- [E,G,D][E,_G,C][E,=G,D][=D,G,] |[M:3/4] [C,G,]2 [B,,G,]4 | %9
[M:1/4] [A,,A,][A,,A,] |[M:4/4] [A,,A,][A,,A,][A,,A,][A,,A,] [G,,F,][A,,E,][B,,E,][A,,E,] | %11
[M:3/4] [D,F,D][D,F,] [D,A,D][D,A,] [D,B,][D,F,] |[M:1/4] z2 | %13
[M:4/4] [E,G,D][E,G,D] z2 [E,G,D][E,G,D] z2 | [A,,A,]A,,A,,A,, A,,2[K:treble] [B,E][A,B,E] | %15
 [A,C_G][A,C][A,CG][A,C] [A,C][A,EG][A,DG][A,CG] | [D,D][D,D][D,D][D,D] D,[D,B,] z2 | %17
 [E,A,C][E,A,C] z2 [E,G,D][E,G,D] z2 |[M:3/4] [A,,A,][A,,G,] [A,,F,][A,,=E,] [A,,_E,]2 |] %19
V:3
 x8 | x8 | x8 | x8 | x8 | x8 | x8 | x8 |[M:3/4] x6 |[M:1/4] x2 |[M:4/4] CCCC C[CA][DG][CA] | %11
[M:3/4] z D z D DD |[M:1/4] x2 |[M:4/4] x8 | .C2 z2 z4 | z _G z G Gcde | .F2 .F2 z4 | x8 | %18
[M:3/4] CC DD C2 |] %19

